X: 04060
T: McLENON'S REEL
C: Bob McQuillen 1979
B: Bob's Note Book 4 #60
N: I am so lucky, because as a school teacher I get to  know  and  enjoy  many
N: really  great  kids.  Shawn McLenon is one of these, and this is your tune,
N: Shawn, with love from Mac.
Z: 2000 John Chambers
M: C|
L: 1/8
K: Bm
dB \
| F2B2 B2dB | AFAB A2BA | F2B2 B2dB | A6 BA \
| F2B2 B2dB | AFAB A2de | f2ed c2A2 | B6 :|
|: de \
| fefg a2f2 | edcB A2de | fefa f2d2 | e6 de \
| fefa f2d2 | edcB A2Bc | d2ed cBA2 | B6 :|

%%sep 1 1 500

%%sep 1 1 500

